svgs/google_docs.svg

<svg width="24" height="24" viewBox="0 0 24 24" fill="none" xmlns="http://www.w3.org/2000/svg">
<path fill-rule="evenodd" clip-rule="evenodd" d="M6 2H14L20 8V20C20 21.1 19.1 22 18 22H5.99C4.89 22 4 21.1 4 20L4.01 4C4.01 2.9 4.9 2 6 2ZM13 3.5V9H18.5L13 3.5ZM7.5 15.7298H16.5V14.2298H7.5V15.7298ZM16.5 12.4798H7.5V10.9798H16.5V12.4798ZM7.5 18.9798H14V17.4798H7.5V18.9798Z" fill="black"/>
</svg>

<svg xmlns="http://www.w3.org/2000/svg" width="24" height="24" fill="none" viewBox="0 0 24 24"><path fill="#000" fill-rule="evenodd" d="M6 2h8l6 6v12c0 1.1-.9 2-2 2H5.99C4.89 22 4 21.1 4 20l.01-16c0-1.1.89-2 1.99-2m7 1.5V9h5.5zM7.5 15.73h9v-1.5h-9zm9-3.25h-9v-1.5h9zm-9 6.5H14v-1.5H7.5z" clip-rule="evenodd"/></svg>
